assets/svg/bottomnav/home_active.svg

<svg width="20" height="20" viewBox="0 0 20 20" fill="none" xmlns="http://www.w3.org/2000/svg">
<g clip-path="url(#clip0_246_1970)">
<path d="M11.1291 19.376H10.1431C9.06012 19.376 8.08812 19.376 7.16212 19.339C6.36482 19.3411 5.57465 19.1889 4.83512 18.891C3.55612 18.291 2.98512 16.876 2.55112 15.591C2.17212 14.474 1.71012 13.028 1.17712 11.291C0.880061 10.444 0.69483 9.56189 0.626119 8.66698C0.605865 8.18666 0.685928 7.70739 0.861203 7.25973C1.03648 6.81207 1.30312 6.40585 1.64412 6.06698C2.04504 5.64841 2.47693 5.26065 2.93612 4.90698C4.26112 3.87598 5.62712 2.86398 6.99912 1.90098C7.64647 1.39296 8.37647 1.00022 9.15712 0.739977C9.43745 0.665667 9.72611 0.627358 10.0161 0.625977C10.5512 0.629124 11.0776 0.761914 11.5501 1.01298C12.11 1.29859 12.6478 1.6255 13.1591 1.99098C14.7491 3.12698 16.1791 4.19898 17.4071 5.17598C17.7848 5.4847 18.1394 5.82059 18.4681 6.18098C18.8666 6.62103 19.1476 7.15449 19.2851 7.73198C19.433 8.89581 19.2869 10.0782 18.8601 11.171C18.4511 12.525 18.0181 13.892 17.5731 15.233C17.3961 15.765 17.1941 16.295 16.9731 16.808C16.789 17.2598 16.5394 17.682 16.2321 18.061C15.8606 18.4626 15.4084 18.7811 14.9052 18.9959C14.402 19.2106 13.8591 19.3166 13.3121 19.307C12.7671 19.353 12.0601 19.376 11.2121 19.376H11.1291ZM8.07412 14.062C7.89922 14.0623 7.72617 14.0978 7.56534 14.1666C7.40451 14.2353 7.2592 14.3358 7.13812 14.462C6.89273 14.7127 6.75618 15.0501 6.75812 15.401V15.441C6.75732 15.7921 6.89565 16.1293 7.14284 16.3788C7.39003 16.6282 7.72595 16.7696 8.07712 16.772L11.9261 16.765C12.2776 16.7618 12.6135 16.6194 12.8602 16.369C13.1069 16.1185 13.2443 15.7805 13.2421 15.429V15.389C13.2429 15.0378 13.1046 14.7006 12.8574 14.4512C12.6102 14.2017 12.2743 14.0604 11.9231 14.058L8.07712 14.065L8.07412 14.062Z" fill="#00524C"/>
<path d="M10.0172 1.25098C10.4538 1.25447 10.883 1.36358 11.2682 1.56898C11.801 1.8412 12.3128 2.15273 12.7992 2.50098C14.3802 3.63098 15.7992 4.69598 17.0222 5.66598C17.3703 5.95341 17.6968 6.26591 17.9992 6.60098C18.3284 6.9652 18.5605 7.40643 18.6742 7.88398C18.7891 8.9387 18.6464 10.0056 18.2582 10.993C17.8512 12.342 17.4192 13.703 16.9762 15.039C16.8062 15.553 16.6102 16.066 16.3952 16.562C16.2356 16.9565 16.019 17.3254 15.7522 17.657C15.4322 17.9958 15.0438 18.2628 14.6128 18.4404C14.1819 18.618 13.7181 18.702 13.2522 18.687C12.7242 18.731 12.0342 18.753 11.2042 18.753H10.1472C9.06824 18.753 8.10124 18.753 7.18524 18.716C6.47159 18.7181 5.76393 18.5858 5.09924 18.326C4.14924 17.884 3.63124 16.834 3.14324 15.394C2.76624 14.283 2.30624 12.842 1.77424 11.113C1.4945 10.3189 1.31806 9.49209 1.24924 8.65298C1.23033 8.25363 1.29631 7.85481 1.44283 7.48283C1.58934 7.11085 1.81307 6.77416 2.09924 6.49498C2.47794 6.10028 2.88575 5.73458 3.31924 5.40098C4.63624 4.37598 5.99924 3.36898 7.35824 2.40698C7.94647 1.9456 8.608 1.58627 9.31524 1.34398C9.54368 1.28343 9.7789 1.25218 10.0152 1.25098M8.07724 17.395L11.9232 17.388C12.4404 17.3843 12.9351 17.1757 13.2987 16.8079C13.6624 16.4401 13.8654 15.9432 13.8632 15.426V15.386C13.8632 14.8692 13.6586 14.3735 13.2942 14.0071C12.9297 13.6408 12.435 13.4336 11.9182 13.431L8.07224 13.438C7.55504 13.4419 7.06052 13.6508 6.69706 14.0188C6.33359 14.3867 6.13084 14.8838 6.13324 15.401V15.441C6.13296 15.9577 6.33734 16.4534 6.70166 16.8198C7.06597 17.1862 7.56056 17.3933 8.07724 17.396M10.0172 0.000976562C9.67357 0.00202239 9.33146 0.047055 8.99924 0.134977C8.14469 0.410367 7.34519 0.833809 6.63724 1.38598C5.25257 2.36331 3.8909 3.37231 2.55224 4.41298C2.06966 4.78398 1.61571 5.1908 1.19424 5.62998C0.795287 6.02895 0.483179 6.50613 0.277527 7.03153C0.0718754 7.55693 -0.0228733 8.11919 -0.000763892 8.68298C0.0686224 9.63612 0.263643 10.5759 0.579236 11.478C1.11724 13.2266 1.57724 14.6646 1.95924 15.792C2.45024 17.244 3.09924 18.77 4.57124 19.456C5.38738 19.786 6.25889 19.9578 7.13924 19.962C8.09924 20.001 9.11324 20.001 10.1472 20.001H11.2102C12.0769 20.001 12.7946 19.9773 13.3632 19.93C13.9911 19.9308 14.6124 19.8013 15.1876 19.5496C15.7629 19.298 16.2797 18.9297 16.7052 18.468C17.0532 18.0411 17.3366 17.5653 17.5462 17.056C17.7769 16.5226 17.9839 15.9803 18.1672 15.429C18.6159 14.0756 19.0466 12.7163 19.4592 11.351C19.9236 10.1524 20.0727 8.85467 19.8922 7.58198C19.7292 6.9054 19.3999 6.2802 18.9342 5.76298C18.5831 5.37574 18.2037 5.01509 17.7992 4.68398C16.5559 3.69598 15.1312 2.62931 13.5252 1.48398C12.9886 1.09944 12.424 0.755486 11.8362 0.454977C11.2747 0.160884 10.6511 0.00522795 10.0172 0.000976562ZM8.07724 16.145C7.98522 16.1442 7.89427 16.1253 7.80958 16.0893C7.72488 16.0533 7.64811 16.001 7.58365 15.9354C7.5192 15.8697 7.46832 15.792 7.43393 15.7066C7.39954 15.6213 7.38231 15.53 7.38324 15.438V15.401C7.38191 15.3089 7.39878 15.2174 7.43287 15.1319C7.46695 15.0463 7.51759 14.9683 7.58188 14.9024C7.64616 14.8364 7.72283 14.7838 7.80749 14.7475C7.89215 14.7112 7.98314 14.692 8.07524 14.691L11.9212 14.684C12.0132 14.6848 12.1042 14.7037 12.1889 14.7396C12.2736 14.7756 12.3504 14.8279 12.4148 14.8936C12.4793 14.9593 12.5302 15.037 12.5645 15.1223C12.5989 15.2077 12.6162 15.299 12.6152 15.391V15.431C12.6166 15.5231 12.5997 15.6145 12.5656 15.7001C12.5315 15.7856 12.4809 15.8636 12.4166 15.9296C12.3523 15.9956 12.2756 16.0482 12.191 16.0845C12.1063 16.1207 12.0153 16.1399 11.9232 16.141L8.07724 16.148V16.145Z" fill="black"/>
</g>
<defs>
<clipPath id="clip0_246_1970">
<rect width="20" height="20" fill="white"/>
</clipPath>
</defs>
</svg>

<svg id="home_active" xmlns="http://www.w3.org/2000/svg" width="20" height="20" viewBox="0 0 20 20">
  <rect id="back" width="20" height="20" transform="translate(0)" fill="none"/>
  <path id="Path_23940" data-name="Path 23940" d="M11.13,19.375h-.986c-1.083,0-2.055,0-2.981-.037a6.183,6.183,0,0,1-2.327-.448c-1.279-.6-1.85-2.015-2.284-3.3-.379-1.117-.841-2.563-1.374-4.3A10.314,10.314,0,0,1,.627,8.666a3.46,3.46,0,0,1,1.018-2.6A11.539,11.539,0,0,1,2.937,4.906C4.262,3.875,5.628,2.863,7,1.9A7.167,7.167,0,0,1,9.158.739a3.416,3.416,0,0,1,.859-.114,3.311,3.311,0,0,1,1.534.387,12.662,12.662,0,0,1,1.609.978c1.59,1.136,3.02,2.208,4.248,3.185A10.017,10.017,0,0,1,18.469,6.18a3.529,3.529,0,0,1,.817,1.551,7.021,7.021,0,0,1-.425,3.439c-.409,1.354-.842,2.721-1.287,4.062-.177.532-.379,1.062-.6,1.575a4.963,4.963,0,0,1-.741,1.253,3.885,3.885,0,0,1-2.92,1.246c-.545.046-1.252.069-2.1.069H11.13ZM8.075,14.061a1.3,1.3,0,0,0-.936.4,1.332,1.332,0,0,0-.38.939v.04a1.328,1.328,0,0,0,1.319,1.331l3.849-.007a1.328,1.328,0,0,0,1.316-1.336v-.04a1.328,1.328,0,0,0-1.319-1.331h0l-3.846.007Z" transform="translate(0 0.001)" fill="#00b2ca"/>
  <path id="Home" d="M10.018,1.25a2.705,2.705,0,0,1,1.251.318A12.048,12.048,0,0,1,12.8,2.5c1.581,1.13,3,2.195,4.223,3.165A9.259,9.259,0,0,1,18,6.6a2.924,2.924,0,0,1,.675,1.283,6.558,6.558,0,0,1-.416,3.109c-.407,1.349-.839,2.71-1.282,4.046-.17.514-.366,1.027-.581,1.523a4.348,4.348,0,0,1-.643,1.095,3.293,3.293,0,0,1-2.5,1.03c-.528.044-1.218.066-2.048.066H10.148c-1.079,0-2.046,0-2.962-.037a5.685,5.685,0,0,1-2.086-.39c-.95-.442-1.468-1.492-1.956-2.932-.377-1.111-.837-2.552-1.369-4.281a9.82,9.82,0,0,1-.525-2.46A2.828,2.828,0,0,1,2.1,6.494,10.923,10.923,0,0,1,3.32,5.4C4.637,4.375,6,3.368,7.359,2.406A6.678,6.678,0,0,1,9.316,1.343a2.788,2.788,0,0,1,.7-.093M8.078,17.394h0l3.846-.007a1.954,1.954,0,0,0,1.94-1.962v-.04a1.955,1.955,0,0,0-1.945-1.955h0l-3.846.007A1.954,1.954,0,0,0,6.134,15.4v.04a1.954,1.954,0,0,0,1.944,1.955M10.018,0A4.027,4.027,0,0,0,9,.134,7.662,7.662,0,0,0,6.638,1.385Q4.561,2.851,2.553,4.412A12.124,12.124,0,0,0,1.195,5.629,4.091,4.091,0,0,0,0,8.682a10.849,10.849,0,0,0,.58,2.795q.807,2.623,1.38,4.314c.491,1.452,1.14,2.978,2.612,3.664a6.938,6.938,0,0,0,2.568.506C8.1,20,9.114,20,10.148,20h1.063q1.3,0,2.153-.071a4.537,4.537,0,0,0,3.342-1.462,5.62,5.62,0,0,0,.841-1.412q.346-.8.621-1.627.673-2.03,1.292-4.078a7.514,7.514,0,0,0,.433-3.769,4.184,4.184,0,0,0-.958-1.819A10.571,10.571,0,0,0,17.8,4.683q-1.865-1.482-4.274-3.2A13.27,13.27,0,0,0,11.837.454,3.978,3.978,0,0,0,10.018,0ZM8.078,16.144a.7.7,0,0,1-.694-.707V15.4a.7.7,0,0,1,.692-.71l3.846-.007h0a.7.7,0,0,1,.694.707v.04a.7.7,0,0,1-.692.71l-3.846.007Z" transform="translate(0 0.001)"/>
</svg>
